X:18353
T:Waiting for Emilie
M:3/4
L:1/8
C:Brian Pickell
K:D
F>G|:A2 A2 F>A|d2 d>c c>c|c2 B2 B>c|B2 A2 g2|
f2 f>g a>f|d2 d>e f>d|g2 g>a f>g|e2 e>f (3gfe|
f2 g2 a2|d2 d>c c>d|c2 B2 B>c|B2 A2 g2|
f2 f>g a>f|d2 d>e f>d|g2 e2 c2|1 d4 F>G|2 d4 A2:|
|:B2 d2 B2|A2 G2 F2|E2 E>E D>E|F2 D2 A,2|
B,2 B,>C D>E|(3EFE D>C D>E|F2 A2 G>F|
|1 ED EF GA:|2 D>E F2 A2:|3 EF G2 A2:|4 D4:|


